assets/img/logo.svg

<svg width="174" height="63" viewBox="0 0 174 63" fill="none" xmlns="http://www.w3.org/2000/svg">
<rect x="13" y="18" width="149" height="45" rx="16" fill="#3E5481"/>
<mask id="mask0" mask-type="alpha" maskUnits="userSpaceOnUse" x="13" y="18" width="149" height="45">
<rect x="13" y="18" width="149" height="45" rx="16" fill="#3E5481"/>
</mask>
<g mask="url(#mask0)">
<path d="M38.5 24H49V26.5L72.5 63H77L68.5 52L67 48H74.5L68.5 41.5L77 31L84 33L88 36L104.5 63H109.5L102 52L100 43.5V25.5H107.5H109.5L112 31L113 33L120 48L128 63H131L122.5 49L126 33H133.5L138.5 36L144 31L147 33L159 56.5L157 59.5L154 63H32.5L27.5 54.5L38.5 24Z" fill="#314163"/>
</g>
<path d="M48.7801 51.185H38.1601L36.5851 56H26.1001L37.7551 24.14H49.2751L60.8851 56H50.3551L48.7801 51.185ZM46.3501 43.67L43.4701 34.805L40.5901 43.67H46.3501ZM78.6998 56.315C76.2998 56.315 74.1698 55.925 72.3098 55.145C70.4798 54.365 69.0248 53.285 67.9448 51.905C66.8648 50.525 66.2498 48.965 66.0998 47.225H75.6848C75.8048 47.975 76.1198 48.53 76.6298 48.89C77.1698 49.25 77.8448 49.43 78.6548 49.43C79.1648 49.43 79.5698 49.325 79.8698 49.115C80.1698 48.875 80.3198 48.59 80.3198 48.26C80.3198 47.69 80.0048 47.285 79.3748 47.045C78.7448 46.805 77.6798 46.535 76.1798 46.235C74.3498 45.875 72.8348 45.485 71.6348 45.065C70.4648 44.645 69.4298 43.925 68.5298 42.905C67.6598 41.885 67.2248 40.475 67.2248 38.675C67.2248 37.115 67.6298 35.705 68.4398 34.445C69.2798 33.155 70.5098 32.15 72.1298 31.43C73.7498 30.68 75.7148 30.305 78.0248 30.305C81.4448 30.305 84.1148 31.145 86.0348 32.825C87.9848 34.505 89.1548 36.695 89.5448 39.395H80.6798C80.5298 38.705 80.2148 38.18 79.7348 37.82C79.2548 37.43 78.6098 37.235 77.7998 37.235C77.2898 37.235 76.8998 37.34 76.6298 37.55C76.3598 37.73 76.2248 38.015 76.2248 38.405C76.2248 38.915 76.5398 39.305 77.1698 39.575C77.7998 39.815 78.8048 40.07 80.1848 40.34C82.0148 40.7 83.5598 41.105 84.8198 41.555C86.0798 42.005 87.1748 42.785 88.1048 43.895C89.0348 44.975 89.4998 46.475 89.4998 48.395C89.4998 49.895 89.0648 51.245 88.1948 52.445C87.3248 53.645 86.0648 54.59 84.4148 55.28C82.7948 55.97 80.8898 56.315 78.6998 56.315ZM113.509 47.495V56H109.729C102.769 56 99.2894 52.535 99.2894 45.605V38.945H96.1394V30.62H99.2894V24.5H109.279V30.62H113.419V38.945H109.279V45.785C109.279 46.385 109.414 46.82 109.684 47.09C109.984 47.36 110.464 47.495 111.124 47.495H113.509ZM120.214 43.31C120.214 40.64 120.664 38.33 121.564 36.38C122.494 34.4 123.754 32.9 125.344 31.88C126.934 30.83 128.719 30.305 130.699 30.305C132.349 30.305 133.774 30.65 134.974 31.34C136.174 32 137.089 32.915 137.719 34.085V30.62H147.664V56H137.719V52.535C137.089 53.705 136.174 54.635 134.974 55.325C133.774 55.985 132.349 56.315 130.699 56.315C128.719 56.315 126.934 55.805 125.344 54.785C123.754 53.735 122.494 52.235 121.564 50.285C120.664 48.305 120.214 45.98 120.214 43.31ZM137.719 43.31C137.719 41.96 137.374 40.91 136.684 40.16C135.994 39.41 135.109 39.035 134.029 39.035C132.949 39.035 132.064 39.41 131.374 40.16C130.684 40.91 130.339 41.96 130.339 43.31C130.339 44.66 130.684 45.71 131.374 46.46C132.064 47.21 132.949 47.585 134.029 47.585C135.109 47.585 135.994 47.21 136.684 46.46C137.374 45.71 137.719 44.66 137.719 43.31Z" fill="white"/>
<path d="M27.8154 0.6V9.4H13.9154V14.3H23.9154V22.65H13.9154V36H2.81543V0.6H27.8154ZM35.0752 21.9C35.0752 18.9333 35.5752 16.3667 36.5752 14.2C37.6085 12 39.0085 10.3333 40.7752 9.2C42.5419 8.03333 44.5252 7.45 46.7252 7.45C48.5585 7.45 50.1419 7.83333 51.4752 8.6C52.8085 9.33333 53.8252 10.35 54.5252 11.65V7.8H65.5752V36H54.5252V32.15C53.8252 33.45 52.8085 34.4833 51.4752 35.25C50.1419 35.9833 48.5585 36.35 46.7252 36.35C44.5252 36.35 42.5419 35.7833 40.7752 34.65C39.0085 33.4833 37.6085 31.8167 36.5752 29.65C35.5752 27.45 35.0752 24.8667 35.0752 21.9ZM54.5252 21.9C54.5252 20.4 54.1419 19.2333 53.3752 18.4C52.6085 17.5667 51.6252 17.15 50.4252 17.15C49.2252 17.15 48.2419 17.5667 47.4752 18.4C46.7085 19.2333 46.3252 20.4 46.3252 21.9C46.3252 23.4 46.7085 24.5667 47.4752 25.4C48.2419 26.2333 49.2252 26.65 50.4252 26.65C51.6252 26.65 52.6085 26.2333 53.3752 25.4C54.1419 24.5667 54.5252 23.4 54.5252 21.9ZM95.3096 7.6C98.5429 7.6 101.06 8.68333 102.86 10.85C104.693 13.0167 105.61 15.95 105.61 19.65V36H94.5596V21.05C94.5596 19.7167 94.1929 18.6667 93.4596 17.9C92.7596 17.1 91.8096 16.7 90.6096 16.7C89.3762 16.7 88.4096 17.1 87.7096 17.9C87.0096 18.6667 86.6596 19.7167 86.6596 21.05V36H75.5596V7.8H86.6596V12.1C87.5262 10.7667 88.6762 9.68333 90.1096 8.85C91.5762 8.01667 93.3096 7.6 95.3096 7.6ZM132.973 26.55V36H128.773C121.04 36 117.173 32.15 117.173 24.45V17.05H113.673V7.8H117.173V0.999998H128.273V7.8H132.873V17.05H128.273V24.65C128.273 25.3167 128.423 25.8 128.723 26.1C129.056 26.4 129.59 26.55 130.323 26.55H132.973ZM140.7 21.9C140.7 18.9333 141.2 16.3667 142.2 14.2C143.234 12 144.634 10.3333 146.4 9.2C148.167 8.03333 150.15 7.45 152.35 7.45C154.184 7.45 155.767 7.83333 157.1 8.6C158.434 9.33333 159.45 10.35 160.15 11.65V7.8H171.2V36H160.15V32.15C159.45 33.45 158.434 34.4833 157.1 35.25C155.767 35.9833 154.184 36.35 152.35 36.35C150.15 36.35 148.167 35.7833 146.4 34.65C144.634 33.4833 143.234 31.8167 142.2 29.65C141.2 27.45 140.7 24.8667 140.7 21.9ZM160.15 21.9C160.15 20.4 159.767 19.2333 159 18.4C158.234 17.5667 157.25 17.15 156.05 17.15C154.85 17.15 153.867 17.5667 153.1 18.4C152.334 19.2333 151.95 20.4 151.95 21.9C151.95 23.4 152.334 24.5667 153.1 25.4C153.867 26.2333 154.85 26.65 156.05 26.65C157.25 26.65 158.234 26.2333 159 25.4C159.767 24.5667 160.15 23.4 160.15 21.9Z" fill="#1FCC79"/>
</svg>

<svg xmlns="http://www.w3.org/2000/svg" width="174" height="63" fill="none" viewBox="0 0 174 63">
    <rect width="149" height="45" x="13" y="18" fill="#3E5481" rx="16"/>
    <mask id="0qb23qgopa" width="149" height="45" x="13" y="18" maskUnits="userSpaceOnUse">
        <rect width="149" height="45" x="13" y="18" fill="#3E5481" rx="16"/>
    </mask>
    <g mask="url(#0qb23qgopa)">
        <path fill="#084074" d="M38.5 24H49v2.5L72.5 63H77l-8.5-11-1.5-4h7.5l-6-6.5L77 31l7 2 4 3 16.5 27h5L102 52l-2-8.5v-18h9.5L112 31l1 2 7 15 8 15h3l-8.5-14 3.5-16h7.5l5 3 5.5-5 3 2 12 23.5-2 3-3 3.5H32.5l-5-8.5 11-30.5z"/>
    </g>
    <path fill="#fff" d="M48.78 51.185H38.16L36.585 56H26.1l11.655-31.86h11.52L60.885 56h-10.53l-1.575-4.815zm-2.43-7.515l-2.88-8.865-2.88 8.865h5.76zM78.7 56.315c-2.4 0-4.53-.39-6.39-1.17-1.83-.78-3.285-1.86-4.365-3.24-1.08-1.38-1.695-2.94-1.845-4.68h9.585c.12.75.435 1.305.945 1.665.54.36 1.215.54 2.025.54.51 0 .915-.105 1.215-.315.3-.24.45-.525.45-.855 0-.57-.315-.975-.945-1.215-.63-.24-1.695-.51-3.195-.81-1.83-.36-3.345-.75-4.545-1.17-1.17-.42-2.205-1.14-3.105-2.16-.87-1.02-1.305-2.43-1.305-4.23 0-1.56.405-2.97 1.215-4.23.84-1.29 2.07-2.295 3.69-3.015 1.62-.75 3.585-1.125 5.895-1.125 3.42 0 6.09.84 8.01 2.52 1.95 1.68 3.12 3.87 3.51 6.57H80.68c-.15-.69-.465-1.215-.945-1.575-.48-.39-1.125-.585-1.935-.585-.51 0-.9.105-1.17.315-.27.18-.405.465-.405.855 0 .51.315.9.945 1.17.63.24 1.635.495 3.015.765 1.83.36 3.375.765 4.635 1.215 1.26.45 2.355 1.23 3.285 2.34.93 1.08 1.395 2.58 1.395 4.5 0 1.5-.435 2.85-1.305 4.05-.87 1.2-2.13 2.145-3.78 2.835-1.62.69-3.525 1.035-5.715 1.035zm34.809-8.82V56h-3.78c-6.96 0-10.44-3.465-10.44-10.395v-6.66h-3.15V30.62h3.15V24.5h9.99v6.12h4.14v8.325h-4.14v6.84c0 .6.135 1.035.405 1.305.3.27.78.405 1.44.405h2.385zm6.705-4.185c0-2.67.45-4.98 1.35-6.93.93-1.98 2.19-3.48 3.78-4.5 1.59-1.05 3.375-1.575 5.355-1.575 1.65 0 3.075.345 4.275 1.035 1.2.66 2.115 1.575 2.745 2.745V30.62h9.945V56h-9.945v-3.465c-.63 1.17-1.545 2.1-2.745 2.79-1.2.66-2.625.99-4.275.99-1.98 0-3.765-.51-5.355-1.53-1.59-1.05-2.85-2.55-3.78-4.5-.9-1.98-1.35-4.305-1.35-6.975zm17.505 0c0-1.35-.345-2.4-1.035-3.15s-1.575-1.125-2.655-1.125c-1.08 0-1.965.375-2.655 1.125-.69.75-1.035 1.8-1.035 3.15 0 1.35.345 2.4 1.035 3.15s1.575 1.125 2.655 1.125c1.08 0 1.965-.375 2.655-1.125.69-.75 1.035-1.8 1.035-3.15z"/>
    <path fill="#1FCC79" d="M27.815.6v8.8h-13.9v4.9h10v8.35h-10V36h-11.1V.6h25zm7.26 21.3c0-2.967.5-5.533 1.5-7.7 1.033-2.2 2.433-3.867 4.2-5 1.767-1.167 3.75-1.75 5.95-1.75 1.834 0 3.417.383 4.75 1.15 1.334.733 2.35 1.75 3.05 3.05V7.8h11.05V36h-11.05v-3.85c-.7 1.3-1.716 2.333-3.05 3.1-1.333.733-2.916 1.1-4.75 1.1-2.2 0-4.183-.567-5.95-1.7-1.767-1.167-3.166-2.833-4.2-5-1-2.2-1.5-4.783-1.5-7.75zm19.45 0c0-1.5-.383-2.667-1.15-3.5-.767-.833-1.75-1.25-2.95-1.25-1.2 0-2.183.417-2.95 1.25-.767.833-1.15 2-1.15 3.5s.383 2.667 1.15 3.5c.767.833 1.75 1.25 2.95 1.25 1.2 0 2.184-.417 2.95-1.25.767-.833 1.15-2 1.15-3.5zM95.31 7.6c3.233 0 5.75 1.083 7.55 3.25 1.833 2.167 2.75 5.1 2.75 8.8V36H94.56V21.05c0-1.333-.367-2.383-1.1-3.15-.7-.8-1.65-1.2-2.85-1.2-1.234 0-2.2.4-2.9 1.2-.7.767-1.05 1.817-1.05 3.15V36h-11.1V7.8h11.1v4.3c.866-1.333 2.016-2.417 3.45-3.25 1.466-.833 3.2-1.25 5.2-1.25zm37.663 18.95V36h-4.2c-7.733 0-11.6-3.85-11.6-11.55v-7.4h-3.5V7.8h3.5V1h11.1v6.8h4.6v9.25h-4.6v7.6c0 .667.15 1.15.45 1.45.333.3.867.45 1.6.45h2.65zm7.727-4.65c0-2.967.5-5.533 1.5-7.7 1.034-2.2 2.434-3.867 4.2-5 1.767-1.167 3.75-1.75 5.95-1.75 1.834 0 3.417.383 4.75 1.15 1.334.733 2.35 1.75 3.05 3.05V7.8h11.05V36h-11.05v-3.85c-.7 1.3-1.716 2.333-3.05 3.1-1.333.733-2.916 1.1-4.75 1.1-2.2 0-4.183-.567-5.95-1.7-1.766-1.167-3.166-2.833-4.2-5-1-2.2-1.5-4.783-1.5-7.75zm19.45 0c0-1.5-.383-2.667-1.15-3.5-.766-.833-1.75-1.25-2.95-1.25-1.2 0-2.183.417-2.95 1.25-.766.833-1.15 2-1.15 3.5s.384 2.667 1.15 3.5c.767.833 1.75 1.25 2.95 1.25 1.2 0 2.184-.417 2.95-1.25.767-.833 1.15-2 1.15-3.5z"/>
</svg>
